assets/img/braze_icons/printer.svg

<svg fill="none" height="24" viewBox="0 0 24 24" width="24" xmlns="http://www.w3.org/2000/svg"><path clip-rule="evenodd" d="m9.16146 1h5.67704c.5272-.000016.982-.000031 1.3565.03057.3954.0323.7886.10362 1.167.29641.5645.28762 1.0234.74656 1.311 1.31105.1928.37838.2641.7716.2964 1.16694.0306.37455.0306.82927.0306 1.35637v.86579c.0868.0048.1707.01043.2519.01707.5621.04592 1.0788.14449 1.5642.39178.7526.38349 1.3645.99541 1.748 1.74806.2473.48534.3459 1.00204.3918 1.56414.0442.54122.0442 1.20552.0442 2.01052v2.3789c.0005.7954.0008 1.386-.1363 1.8977-.3699 1.3803-1.4481 2.4585-2.8284 2.8284-.3075.0824-.6436.1152-1.0354.1281-.0003.4625-.003.8655-.0306 1.2032-.0323.3954-.1036.7886-.2964 1.167-.2876.5645-.7465 1.0234-1.311 1.311-.3784.1928-.7716.2641-1.167.2964-.3745.0306-.8292.0306-1.3563.0306h-5.67726c-.52708 0-.98193 0-1.35647-.0306-.39534-.0323-.78856-.1036-1.16694-.2964-.56449-.2876-1.02343-.7465-1.31105-1.311-.19279-.3784-.26411-.7716-.29641-1.167-.0276-.3377-.03029-.7407-.03055-1.2032-.39178-.013-.72775-.0457-1.0352-.1281-1.38037-.3699-2.45856-1.4481-2.82843-2.8284-.137093-.5117-.136773-1.1023-.13634-1.8977l.00005-2.3789c-.00002-.805-.00003-1.4693.04419-2.01052.04593-.5621.14449-1.0788.39178-1.56414.38349-.75265.99542-1.36457 1.74806-1.74806.48534-.24729 1.00204-.34586 1.56414-.39178.08112-.00663.16501-.01227.25173-.01706v-.86568c-.00002-.52715-.00003-.98192.03057-1.35649.0323-.39534.10362-.78856.29641-1.16694.28762-.56449.74656-1.02343 1.31105-1.31105.37838-.19279.7716-.26411 1.16694-.29641.37457-.030601.82936-.030586 1.35649-.03057zm-2.16146 5h10v-.8c0-.57655-.0008-.94882-.0239-1.23216-.0222-.27166-.0599-.37238-.0851-.42183-.0959-.18816-.2488-.34114-.437-.43701-.0495-.0252-.1502-.06287-.4218-.08507-.2834-.02315-.6556-.02393-1.2322-.02393h-5.6c-.57655 0-.94883.00078-1.23216.02393-.27167.0222-.37238.05987-.42183.08507-.18816.09587-.34114.24885-.43701.43701-.0252.04945-.06288.15017-.08507.42183-.02315.28334-.02393.65561-.02393 1.23216zm0 12.8c0 .5766.00078.9488.02393 1.2322.02219.2716.05987.3723.08507.4218.09587.1882.24885.3411.43701.437.04945.0252.15016.0629.42183.0851.28333.0231.65561.0239 1.23216.0239h5.6c.5766 0 .9488-.0008 1.2322-.0239.2716-.0222.3723-.0599.4218-.0851.1882-.0959.3411-.2488.437-.437.0252-.0495.0629-.1502.0851-.4218.0231-.2834.0239-.6556.0239-1.2322v-1.6c0-.5766-.0008-.9488-.0239-1.2322-.0222-.2716-.0599-.3723-.0851-.4218-.0959-.1881-.2488-.3411-.437-.437-.0495-.0252-.1502-.0629-.4218-.0851-.0355-.0029-.0723-.0054-.1107-.0076-.2689-.0157-.617-.0163-1.1214-.0163h-5.6c-.00003 0 .00003 0 0 0-.57627 0-.94855.0008-1.23183.0239-.00012 0 .00011 0 0 0-.27167.0222-.37272.0599-.42216.0851-.18817.0959-.34115.2488-.43702.437-.02519.0495-.06287.1502-.08507.4218-.02315.2834-.02392.6556-.02392 1.2322zm7-8.3c0-.55228.4477-1 1-1h3c.5523 0 1 .44772 1 1 0 .5523-.4477 1-1 1h-3c-.5523 0-1-.4477-1-1z" fill="#801ed7" fill-rule="evenodd"/></svg>

<svg width="24" height="24" viewBox="0 0 24 24" fill="none" xmlns="http://www.w3.org/2000/svg">
<path fill-rule="evenodd" clip-rule="evenodd" d="M9.16146 1H14.8385C15.3657 0.999984 15.8205 0.999969 16.195 1.03057C16.5904 1.06287 16.9836 1.13419 17.362 1.32698C17.9265 1.6146 18.3854 2.07354 18.673 2.63803C18.8658 3.01641 18.9371 3.40963 18.9694 3.80497C19 4.17952 19 4.63424 19 5.16134V6.02713C19.0868 6.03193 19.1707 6.03756 19.2519 6.0442C19.814 6.09012 20.3307 6.18869 20.8161 6.43598C21.5687 6.81947 22.1806 7.43139 22.5641 8.18404C22.8114 8.66938 22.91 9.18608 22.9559 9.74818C23.0001 10.2894 23.0001 10.9537 23.0001 11.7587L23.0001 14.1376C23.0006 14.933 23.0009 15.5236 22.8638 16.0353C22.4939 17.4156 21.4157 18.4938 20.0354 18.8637C19.7279 18.9461 19.3918 18.9789 19 18.9918C18.9997 19.4543 18.997 19.8573 18.9694 20.195C18.9371 20.5904 18.8658 20.9836 18.673 21.362C18.3854 21.9265 17.9265 22.3854 17.362 22.673C16.9836 22.8658 16.5904 22.9371 16.195 22.9694C15.8205 23 15.3658 23 14.8387 23H9.16144C8.63436 23 8.17951 23 7.80497 22.9694C7.40963 22.9371 7.01641 22.8658 6.63803 22.673C6.07354 22.3854 5.6146 21.9265 5.32698 21.362C5.13419 20.9836 5.06287 20.5904 5.03057 20.195C5.00297 19.8573 5.00028 19.4543 5.00002 18.9918C4.60824 18.9788 4.27227 18.9461 3.96482 18.8637C2.58445 18.4938 1.50626 17.4156 1.13639 16.0353C0.999297 15.5236 0.999617 14.933 1.00005 14.1376L1.0001 11.7587C1.00008 10.9537 1.00007 10.2894 1.04429 9.74818C1.09022 9.18608 1.18878 8.66938 1.43607 8.18404C1.81956 7.43139 2.43149 6.81947 3.18413 6.43598C3.66947 6.18869 4.18617 6.09012 4.74827 6.0442C4.82939 6.03757 4.91328 6.03193 5 6.02714L5 5.16146C4.99998 4.63431 4.99997 4.17954 5.03057 3.80497C5.06287 3.40963 5.13419 3.01641 5.32698 2.63803C5.6146 2.07354 6.07354 1.6146 6.63803 1.32698C7.01641 1.13419 7.40963 1.06287 7.80497 1.03057C8.17954 0.999969 8.63433 0.999984 9.16146 1ZM7 6H17V5.2C17 4.62345 16.9992 4.25118 16.9761 3.96784C16.9539 3.69618 16.9162 3.59546 16.891 3.54601C16.7951 3.35785 16.6422 3.20487 16.454 3.109C16.4045 3.0838 16.3038 3.04613 16.0322 3.02393C15.7488 3.00078 15.3766 3 14.8 3H9.2C8.62345 3 8.25117 3.00078 7.96784 3.02393C7.69617 3.04613 7.59546 3.0838 7.54601 3.109C7.35785 3.20487 7.20487 3.35785 7.109 3.54601C7.0838 3.59546 7.04612 3.69618 7.02393 3.96784C7.00078 4.25118 7 4.62345 7 5.2V6ZM7 18.8C7 19.3766 7.00078 19.7488 7.02393 20.0322C7.04612 20.3038 7.0838 20.4045 7.109 20.454C7.20487 20.6422 7.35785 20.7951 7.54601 20.891C7.59546 20.9162 7.69617 20.9539 7.96784 20.9761C8.25117 20.9992 8.62345 21 9.2 21H14.8C15.3766 21 15.7488 20.9992 16.0322 20.9761C16.3038 20.9539 16.4045 20.9162 16.454 20.891C16.6422 20.7951 16.7951 20.6422 16.891 20.454C16.9162 20.4045 16.9539 20.3038 16.9761 20.0322C16.9992 19.7488 17 19.3766 17 18.8V17.2C17 16.6234 16.9992 16.2512 16.9761 15.9678C16.9539 15.6962 16.9162 15.5955 16.891 15.546C16.7951 15.3579 16.6422 15.2049 16.454 15.109C16.4045 15.0838 16.3038 15.0461 16.0322 15.0239C15.9967 15.021 15.9599 15.0185 15.9215 15.0163C15.6526 15.0006 15.3045 15 14.8001 15C14.8001 15 14.8001 15 14.8001 15L9.2001 15C9.20007 15 9.20013 15 9.2001 15C8.62383 15 8.25155 15.0008 7.96827 15.0239C7.96815 15.0239 7.96838 15.0239 7.96827 15.0239C7.6966 15.0461 7.59555 15.0838 7.54611 15.109C7.35794 15.2049 7.20496 15.3578 7.10909 15.546C7.0839 15.5955 7.04622 15.6962 7.02402 15.9678C7.00087 16.2512 7.0001 16.6234 7.0001 17.2L7 18.8ZM14 10.5C14 9.94772 14.4477 9.5 15 9.5L18 9.5C18.5523 9.5 19 9.94772 19 10.5C19 11.0523 18.5523 11.5 18 11.5L15 11.5C14.4477 11.5 14 11.0523 14 10.5Z" fill="#801ED7"/>
</svg>
